public/Back.svg

<?xml version="1.0" encoding="UTF-8"?>
<svg width="108px" height="108px" viewBox="0 0 108 108" version="1.1" xmlns="http://www.w3.org/2000/svg" xmlns:xlink="http://www.w3.org/1999/xlink">
    <!-- Generator: Sketch 40.3 (33839) - http://www.bohemiancoding.com/sketch -->
    <title>Shape</title>
    <desc>Created with Sketch.</desc>
    <defs>
        <path d="M64.2484472,93.6833667 C64.2484472,94.5517702 63.9033816,95.3199733 63.2132505,95.987976 L58.0372671,100.997996 C57.347136,101.665999 56.5534852,102 55.6563147,102 C54.7591442,102 53.9654934,101.665999 53.2753623,100.997996 L5.03519669,54.3046092 C4.34506556,53.6366065 4,52.8684035 4,52 C4,51.1315965 4.34506556,50.3633935 5.03519669,49.6953908 L53.2753623,3.00200401 C53.9654934,2.33400134 54.7591442,2 55.6563147,2 C56.5534852,2 57.347136,2.33400134 58.0372671,3.00200401 L63.2132505,8.01202405 C63.9033816,8.68002672 64.2484472,9.44822979 64.2484472,10.3166333 C64.2484472,11.1850367 63.9033816,11.9532398 63.2132505,12.6212425 L22.5300207,52 L63.2132505,91.3787575 C63.9033816,92.0467602 64.2484472,92.8149633 64.2484472,93.6833667 L64.2484472,93.6833667 Z M104,93.6833667 C104,94.5517702 103.654934,95.3199733 102.964803,95.987976 L97.7888199,100.997996 C97.0986888,101.665999 96.305038,102 95.4078675,102 C94.510697,102 93.7170462,101.665999 93.0269151,100.997996 L44.7867495,54.3046092 C44.0966184,53.6366065 43.7515528,52.8684035 43.7515528,52 C43.7515528,51.1315965 44.0966184,50.3633935 44.7867495,49.6953908 L93.0269151,3.00200401 C93.7170462,2.33400134 94.510697,2 95.4078675,2 C96.305038,2 97.0986888,2.33400134 97.7888199,3.00200401 L102.964803,8.01202405 C103.654934,8.68002672 104,9.44822979 104,10.3166333 C104,11.1850367 103.654934,11.9532398 102.964803,12.6212425 L62.2815735,52 L102.964803,91.3787575 C103.654934,92.0467602 104,92.8149633 104,93.6833667 L104,93.6833667 Z" id="path-1"></path>
        <filter x="-50%" y="-50%" width="200%" height="200%" filterUnits="objectBoundingBox" id="filter-2">
            <feOffset dx="0" dy="2" in="SourceAlpha" result="shadowOffsetOuter1"></feOffset>
            <feGaussianBlur stdDeviation="2" in="shadowOffsetOuter1" result="shadowBlurOuter1"></feGaussianBlur>
            <feColorMatrix values="0 0 0 0 0.933333333   0 0 0 0 0.933333333   0 0 0 0 0.933333333  0 0 0 0.5 0" type="matrix" in="shadowBlurOuter1"></feColorMatrix>
        </filter>
    </defs>
    <g id="Page-1" stroke="none" stroke-width="1" fill="none" fill-rule="evenodd">
        <g id="Shape">
            <use fill="black" fill-opacity="1" filter="url(#filter-2)" xlink:href="#path-1"></use>
            <use fill="#FFFFFF" fill-rule="evenodd" style="mix-blend-mode: darken;" xlink:href="#path-1"></use>
        </g>
    </g>
</svg>

<svg width="108" height="108" viewBox="0 0 108 108" xmlns="http://www.w3.org/2000/svg" xmlns:xlink="http://www.w3.org/1999/xlink"><title>Shape</title><defs><path d="M64.248 93.683c0 .869-.345 1.637-1.035 2.305l-5.176 5.01c-.69.668-1.484 1.002-2.38 1.002-.898 0-1.692-.334-2.382-1.002L5.035 54.305C4.345 53.637 4 52.868 4 52c0-.868.345-1.637 1.035-2.305l48.24-46.693C53.965 2.334 54.76 2 55.656 2c.897 0 1.691.334 2.381 1.002l5.176 5.01c.69.668 1.035 1.436 1.035 2.305 0 .868-.345 1.636-1.035 2.304L22.53 52l40.683 39.379c.69.668 1.035 1.436 1.035 2.304zm39.752 0c0 .869-.345 1.637-1.035 2.305l-5.176 5.01c-.69.668-1.484 1.002-2.381 1.002-.897 0-1.691-.334-2.381-1.002l-48.24-46.693c-.69-.668-1.035-1.437-1.035-2.305 0-.868.345-1.637 1.035-2.305l48.24-46.693C93.717 2.334 94.51 2 95.407 2c.898 0 1.692.334 2.382 1.002l5.176 5.01c.69.668 1.035 1.436 1.035 2.305 0 .868-.345 1.636-1.035 2.304L62.282 52l40.683 39.379c.69.668 1.035 1.436 1.035 2.304z" id="b"/><filter x="-50%" y="-50%" width="200%" height="200%" filterUnits="objectBoundingBox" id="a"><feOffset dy="2" in="SourceAlpha" result="shadowOffsetOuter1"/><feGaussianBlur stdDeviation="2" in="shadowOffsetOuter1" result="shadowBlurOuter1"/><feColorMatrix values="0 0 0 0 0.933333333 0 0 0 0 0.933333333 0 0 0 0 0.933333333 0 0 0 0.5 0" in="shadowBlurOuter1"/></filter></defs><g fill="none" fill-rule="evenodd"><use fill="#000" filter="url(#a)" xlink:href="#b"/><use fill="#FFF" style="mix-blend-mode:darken" xlink:href="#b"/></g></svg>
